X:1
T:Title
%%score { ( 1 2 ) | ( 3 4 ) }
L:1/8
Q:1/4=100
M:6/8
K:Ab
V:1 treble nm="Grand Piano"
V:2 treble 
V:3 treble 
V:4 treble 
V:1
 [Ec]3- [E-Gc-]2 [E-Fc-] | [EAc]3 .[Ad] .[Gd]2 | [Bd]2 [Gd] d2 d | c3- c2 E/E/ | c2 c d2 c | %5
w: Robert~Harkness * *|||||
 [Ge]3 [GB]<.[GB][GB] | [Gd]2 [Gd] [Ae]2 [Gf] | f3 c<.cE | e6- | e2 z z3 | A6- | A6 |] %12
w: |||||||
V:2
 .A3 z3 | x6 | x6 | x6 | x6 | x6 | x6 | x6 | z2 c B2 G | G2 c B2 c | [A,C]2 F E2 D | C6 |] %12
V:3
 z2 G[K:bass] E,3 | z2[K:treble] F .[B,E][K:bass] .[B,E]2 | [E,E]2 [E,B,] [F,A,F]2 [G,B,E] | %3
 [A,E]3- [A,E]2 [A,C]/[A,C]/ | [A,E]2 [A,E] [A,F]2[K:bass] [A,E] | [E,B,]3 [E,E]<.[E,E][E,E] | %6
 [E,B,]2 [E,B,] [E,C]2 [E,D] | [A,DA]3 [A,EA]<.[A,EA] z | z2[K:bass] [E,E] [E,D]2 [E,C] | %9
 [E,B,]2 [E,A,E] [E,G,E]2 [E,G,E] | z2 A, G,2 F, | E,6 |] %12
V:4
 A,3[K:bass] z3 | A,3[K:treble] z3[K:bass] | x6 | x6 | x5[K:bass] x | x6 | x6 | x6 | %8
 x2[K:bass] x4 | x6 | A,,6- | A,,6 |] %12

